usr/share/icons/biglinux-icons-material/24/actions/node-type-symmetric.svg

<svg xmlns="http://www.w3.org/2000/svg" viewBox="0 0 24 24"><path d="M2 3a10 15 0 0 0 9 14.91v-1.004A9 14 0 0 1 3 3H2zm19 0a9 14 0 0 1-8 13.896v1.03A10 15 0 0 0 22 3h-1zM2 16v3h3v-1h1v-1H5v-1H2zm17 0v1h-1v1h1v1h3v-3h-3zM3 17h1v1H3v-1zm4 0v1h1v-1H7zm9 0v1h1v-1h-1zm4 0h1v1h-1v-1z" style="fill:currentColor;fill-opacity:1;stroke:none;color:#dedede"/><path d="m12 14-3 5h6l-3-5zm0 2 1 2h-2l1-2z" style="fill:currentColor;fill-opacity:1;stroke:none;color:#3daee9"/></svg>

<svg xmlns="http://www.w3.org/2000/svg" viewBox="0 0 24 24">
  <defs id="defs3051">
    <style type="text/css" id="current-color-scheme">
      .ColorScheme-Text {
        color:#363636;
      }
      .ColorScheme-Highlight {
        color:#3daee9;
      }
      </style>
  </defs>
 <path 
     style="fill:currentColor;fill-opacity:1;stroke:none" 
     d="M 2 3 A 10 15 0 0 0 11 17.910156 L 11 17 L 11 16.90625 A 9 14 0 0 1 3 3 L 2 3 z M 21 3 A 9 14 0 0 1 13 16.896484 L 13 17 L 13 17.925781 A 10 15 0 0 0 22 3 L 21 3 z M 2 16 L 2 19 L 5 19 L 5 18 L 6 18 L 6 17 L 5 17 L 5 16 L 2 16 z M 19 16 L 19 17 L 18 17 L 18 18 L 19 18 L 19 19 L 22 19 L 22 16 L 19 16 z M 3 17 L 4 17 L 4 18 L 3 18 L 3 17 z M 7 17 L 7 18 L 8 18 L 8 17 L 7 17 z M 16 17 L 16 18 L 17 18 L 17 17 L 16 17 z M 20 17 L 21 17 L 21 18 L 20 18 L 20 17 z "
     class="ColorScheme-Text"
     />
 <path 
     style="fill:currentColor;fill-opacity:1;stroke:none" 
     d="M 12 14 L 9 19 L 15 19 L 12 14 z M 12 16 L 13 18 L 11 18 L 12 16 z "
     class="ColorScheme-Highlight"
     />
</svg>
